dist/img/action.svg

<svg width="9" height="14" viewBox="0 0 9 14" fill="none" xmlns="http://www.w3.org/2000/svg">
<path d="M2.18012 13.0205C2.30709 13.088 2.44103 12.9418 2.36329 12.8208C1.94135 12.1641 1.5418 11.0591 2.17838 9.63596C3.23996 7.26276 3.88593 6.03361 3.88593 6.03361C3.88593 6.03361 4.22951 7.46802 5.16089 8.74341C6.05729 9.97088 6.54794 11.5146 5.75695 12.8007C5.68272 12.9214 5.81361 13.0638 5.93975 12.9993C6.91888 12.4984 8.01707 11.4937 8.14098 9.49444C8.18666 8.88352 8.11814 8.02822 7.77554 6.94891C7.33502 5.58098 6.79346 4.94268 6.48012 4.66857C6.38639 4.58656 6.24063 4.65925 6.24831 4.78354C6.33962 6.25953 5.78434 6.63408 5.46829 5.78998C5.34206 5.45283 5.26845 4.86968 5.26845 4.15953C5.26845 2.97725 4.92543 1.76021 4.16921 0.771227C3.97256 0.514042 3.74246 0.273721 3.47845 0.0687844C3.38288 -0.00542524 3.24433 0.0691667 3.25308 0.189848C3.31115 0.991328 3.25854 3.28832 1.24335 6.03251C-0.583833 8.57804 0.124195 10.533 0.375433 11.0625C0.855778 12.0768 1.52579 12.6725 2.18012 13.0205Z" fill="white"/>
</svg>

<svg width="9" height="14" fill="none" xmlns="http://www.w3.org/2000/svg"><path d="M2.18 13.02c.127.068.261-.078.183-.2-.422-.656-.821-1.76-.185-3.184C3.24 7.263 3.886 6.034 3.886 6.034s.344 1.434 1.275 2.71c.896 1.227 1.387 2.77.596 4.057-.074.12.057.263.183.198.979-.5 2.077-1.505 2.201-3.505.046-.61-.023-1.466-.365-2.545-.441-1.368-.983-2.006-1.296-2.28a.14.14 0 00-.232.115c.092 1.476-.464 1.85-.78 1.006-.126-.337-.2-.92-.2-1.63 0-1.183-.343-2.4-1.099-3.389A3.837 3.837 0 003.48.07a.14.14 0 00-.226.12c.058.802.006 3.1-2.01 5.844-1.827 2.545-1.119 4.5-.868 5.03.48 1.014 1.15 1.61 1.805 1.957z" fill="#fff"/></svg>
